verbatimtex                                          
%&latex 
%\documentclass{article}
%\usepackage{CJK}       
%\begin{CJK}{GBK}{song}
%\begin{document}      
%etex            
%
%beginfig(1);
%drawarrow origin--(0,100);
%drawarrow origin--(100,0);
%drawdot origin withpen pencircle scaled 2pt;
%label.bot(btex 原点 etex, origin);
%label.lft(btex $y$ etex, (0,100));
%label.lrt(btex $x$ etex, (100,0));
%endfig;
%
%verbatimtex
%\end{CJK}
%\end{document}
%etex
%
%end
%
